!!!ONB: MCCC : IJH0429_04 : Extracted Monophonic Melody
!!!COM: Haydn, Joseph
!!!OPR: String Quartet in D major
!!!OMV: 4
!!!SCT: Hob.III:42 ; Op.33 No.6
!!!ODT: 1781///
**kern
*thru
*k[f#c#]
*D:
*clefF
*M2/4
8dd
=1
8.d
32f#
32a
8g
8e
=2
8f#
8g
8e
8a
=3
8f#
8b
8a
8g#
=4
4g#
8a
8ee
=5
12..A[
96A]
32c#
32e
32g
8f#
8b
=6
8.e
32f#
32g
8a
8dd
=7
8b
8ee
8dd
8cc#
=8
4cc#
8dd
8aa
=9
8.a
32b
32cc
8b
8bb
=10
8.f#
32g
32a
8g
8gg
=11
8ff#
8dd
8b
8g
=12
4f#
8e
8ee
=13
12..A[
96A]
32c#
32e
32g
8f#
8b
=14
8.e
32f#
32g
8a
8ddd
=15
8bb
8gg
8ee
8cc#
=16
4dd
8r
8r
=17
8r
8a
8dd
8cc#
=18
8dd
8ee
8ff
8gg
=19
8ff
8ee
8ee
8r
=20
2r
=21
8r
8cc#
8bb-
8aa
=22
8gg
8ff
8ee
8dd
=23
8cc#
8ee
8ee
8r
=24
4.r
8r
=25
8r
8cc
8ccc
8aa
=26
8aa
8bb-
8bb-
8aa
=27
8aa
8gg
8gg
8ddd
=28
8ddd
8ccc#
8ccc#
8bb-
=29
8cc#
4r
8aa
=30
8dd
4r
8ff
=31
8ee-
8gg
8dd
8cc#
=32
4dd
8r
8dd
=33
8.d
32f#
32a
8g
8e
=34
8f#
8g
8e
8a
=35
8f#
8b
8a
8g#
=36
4g#
8a
8ee
=37
12..A[
96A]
32c#
32e
32g
8f#
8b
=38
8.e
32f#
32g
8a
8dd
=39
8b
8ee
8dd
8cc#
=40
4cc#
8dd
8dd
=41
8d
24d
24f#
24a
24g
24e
24c#
24A
24e
24g
=42
8f#
24g
24a
24g
8e
24a
24b
24a
=43
24f#
24g#
24a
24b
24cc#
24dd
24cc#
24ee
24cc#
24dd
24b
24g#
=44
4g#
8a
8ee
=45
24A
24c#
24d
24e
24f#
24g
8f#
8b
=46
24c#
24d
24e
24f#
24g
24g#
24a
24b
24cc#
24dd
24ee
24ff#
=47
24b
24ff#
24gg
24bb
24gg
24ee
24ff#
24aa
24ff#
24gg
24ee
24cc#
=48
4dd
8r
8aa
=49
8.a
32b
32cc
8b
8bb
=50
8.f#
32g
32a
8g
8gg
=51
8ff#
8dd
8b
8g
=52
4f#
8e
8ee
=53
12..A[
96A]
32c#
32e
32g
8f#
8b
=54
8.e
32f#
32g
8a
8ddd
=55
8bb
8gg
8ee
8cc#
=56
4dd
8r
8aa
=57
8.a
32b
32cc
24b
24cc#
24dd#
24ee
24ff#
24gg
=58
24aa
24bb
24aa
24gg
24ff#
24aa
24gg
24bb
24aa
24gg
24ff#
24ee
=59
24ff#
24aa
24gg
24ff#
24ee
24dd
24cc#
24b
24a
24g
24f#
24e
=60
4d
8c#
8ee
=61
24A
24c#
24d
24e
24f#
24g
8f#
8b
=62
24c#
24d
24e
24f#
24g
24g#
24a
24b
24cc#
24dd
24ee
24ff#
=63
24b
24ff#
24gg
24bb
24gg
24ee
24ff#
24aa
24ff#
24gg
24ee
24cc#
=64
4dd
4r
=65
4.r
8a
=66
4.aa
8ddd
=67
8ddd
8ccc#
8ccc#
8fff
=68
8fff
8eee
8eee
8r
=69
4.r
8aa
=70
4aaa
8ggg
8fff
=71
8eee
8aaa
8aaa
8fff
=72
8eee
8ccc#
8aa
8r
=73
8r
8aa
8ccc
8eee-
=74
8eee-
8ddd
8ddd
8ccc
=75
8ccc
8bb-
8bb-
8fff
=76
8fff
8eee
8eee
8ggg
=77
4ccc#
8r
8aa
=78
8fff
4r
8fff[
=79
8fff]
8eee
8ggg
8ccc#
=80
4ddd
8r
8dd
=81
8.d
32f#
32a
8g
8e
=82
8f#
8g
8e
8a
=83
8f#
8b
8a
8g#
=84
4g#
8a
8ee
=85
12..A[
96A]
32c#
32e
32g
8f#
8b
=86
8.e
32f#
32g
8a
8dd
=87
8b
8ee
8dd
8cc#
=88
4cc#
8dd
8ddd
=89
8.dd
32ff#
32aa
16gg
16gg
16r
16ee
=90
16ff#
16ff#
16r
16gg
16ee
16ee
16r
16aa
=91
16ff#
16ff#
16r
16ddd
16r
16ccc#
16r
16gg#
=92
4gg#
8aa
8eee
=93
8.ee
32ff#
32gg
16ff#
16ff#
16r
16bb
=94
16ee
16ee
16r
16aa
16dd
16dd
16r
16ddd
=95
16r
16bb
16r
16gg
16r
16ff#
16aa
16cc#
=96
4ee
8dd
8aa
=97
8.a
32b
32cc
8b
8bb
=98
8.f#
32g
32a
8g
8gg
=99
8ff#
8dd
8b
8g
=100
4f#
8e
8ee
=101
8A
32A
32c#
32e
32g
8f#
8b
=102
8.e
32f#
32g
8a
8ddd
=103
8bb
8gg
8ee
8cc#
=104
4dd
8r
8aa
=105
8.a
32b
32cc
16b
16b
16r
16bb
=106
16ff#
16ff#
16r
16aa
16gg
16gg
16r
16ggg
=107
16r
16fff#
16r
16ddd
16r
16bb
16r
16gg
=108
8.ff#
32gg
32ff#
8ee
8eee
=109
8.ee
32ff#
32gg
16ff#
16ff#
16r
16bb
=110
16ee
16ee
16r
16aa
16dd
16dd
16r
16b
=111
16e
16e
16r
16a
16d
16d
8r
=112
4.r
8ddd
=113
8bb
8gg
8ee
8cc#
=114
4dd
4r
==
*-
